X: 10532
P: First time pp, second time ff.
M: 2/4
L: 1/16
K: D
d2dd e2f2 | a4 g2e2 | d2dd B2d2 | A4 F2A2 |\
d2dd e2f2 | a4 (bagf) | e2B2c2A2 | d4 d2 H:|\
[K:G]\
!p!=c2 |\
(G2AB) c2B2 | (A2Bc) d2g2 | f2(ed) e2(d^c) | d2(fe) d2=c2 |\
d4 c4 | (B>AB>c d2c2) | B4 A4 | "^D.C."G6 |]


